packages/appstore/src/assets/svgs/wallet/nganluong-light.svg

<svg width="128" height="80" viewBox="0 0 128 80" fill="none" xmlns="http://www.w3.org/2000/svg">
<g opacity="0.997">
<path d="M14.3099 46.593L14.1172 46.5073C10.9062 44.0455 9.07594 41.6694 9.03313 37.463C8.99031 36.4258 9.09521 35.3876 9.34352 34.3804C6.53817 35.9827 4.86416 39.0192 5.00865 42.2474C5.00544 44.6706 5.96661 46.9954 7.67915 48.7101C9.39169 50.4248 11.7154 51.3881 14.1386 51.3881C17.5509 51.3774 20.6998 49.5503 22.4017 46.593H14.3099Z" fill="#0C0E0F"/>
<path d="M23.9752 32.8711C20.4784 32.9353 17.2835 34.8619 15.5945 37.9231H18.9232C20.882 37.8482 22.9691 37.9231 23.5792 37.9231H23.7719C27.1113 39.748 29.1696 43.2684 29.1236 47.0745C29.1129 48.1812 28.8763 49.274 28.4278 50.2855C31.367 48.6639 33.1908 45.5717 33.1908 42.2151C33.1855 37.1064 29.0829 32.9471 23.9752 32.8711Z" fill="#0C0E0F"/>
</g>
<g opacity="0.997">
<path d="M23.3542 38.8749V42.3214C23.4077 44.0446 23.3542 45.8321 23.3542 46.6027V46.9666C21.5614 50.2911 18.0764 52.3504 14.2991 52.3183C13.1935 52.3076 12.1017 52.0743 11.0881 51.6333C13.1004 55.2831 17.3293 57.107 21.3655 56.0656C25.4007 55.0241 28.2189 51.3807 28.2135 47.2128C28.2243 43.7588 26.364 40.5692 23.3542 38.8749Z" fill="#E87700"/>
<path d="M19.0408 28C13.946 28 9.81445 32.1315 9.81445 37.2263C9.8273 40.6996 11.6982 43.8999 14.7166 45.6178V42.1499C14.6631 40.3624 14.7166 38.5 14.7166 37.7615V37.4297C16.5437 34.0913 20.0629 32.0341 23.868 32.078C24.9747 32.0919 26.0665 32.3285 27.079 32.7737C25.4628 29.8442 22.3867 28.0182 19.0408 28Z" fill="#E87700"/>
</g>
<path opacity="0.997" d="M53.8347 41.2899C54.5411 41.2899 55.1576 41.4644 55.6842 41.8122C55.97 42.0081 56.2622 42.2939 56.5587 42.6685V41.5339H57.9544V49.7242L57.9501 50.0603C57.9191 51.046 57.7532 51.837 57.4503 52.4321C56.822 53.6545 55.6371 54.2656 53.8935 54.2656C52.9238 54.2656 52.1082 54.0483 51.4467 53.6138C50.7853 53.1792 50.4149 52.5006 50.3368 51.5748H51.8749L51.9177 51.7685C51.999 52.0789 52.1307 52.3251 52.3126 52.5081C52.6551 52.8442 53.1924 53.0123 53.9267 53.0123C55.0869 53.0123 55.8469 52.6034 56.2065 51.7846C56.4184 51.3029 56.5169 50.4424 56.4998 49.2029C56.1969 49.6632 55.833 50.0057 55.407 50.2294C54.981 50.4541 54.418 50.5655 53.7158 50.5655C52.7418 50.5655 51.8877 50.2197 51.1567 49.5272C50.4246 48.8347 50.0585 47.6895 50.0585 46.0914C50.0585 44.5844 50.4278 43.407 51.1642 42.5593C51.9027 41.7138 52.7911 41.2899 53.8347 41.2899ZM120.881 41.2899C121.587 41.2899 122.203 41.4644 122.73 41.8122C123.016 42.0081 123.308 42.2939 123.605 42.6685V41.5339H125V49.7242L124.995 50.0603C124.965 51.046 124.798 51.837 124.495 52.4321C123.868 53.6545 122.682 54.2656 120.938 54.2656C119.969 54.2656 119.153 54.0483 118.492 53.6138C117.83 53.1792 117.46 52.5006 117.382 51.5748H118.921L118.964 51.7685C119.044 52.0789 119.176 52.3251 119.358 52.5081C119.7 52.8442 120.238 53.0123 120.973 53.0123C122.133 53.0123 122.893 52.6034 123.251 51.7846C123.464 51.3029 123.562 50.4424 123.546 49.2029C123.243 49.6632 122.878 50.0057 122.452 50.2294C122.026 50.4541 121.463 50.5655 120.762 50.5655C119.787 50.5655 118.933 50.2197 118.202 49.5272C117.469 48.8347 117.104 47.6895 117.104 46.0914C117.104 44.5844 117.473 43.407 118.21 42.5593C118.948 41.7138 119.837 41.2899 120.88 41.2899H120.881ZM102.178 41.1893C103.339 41.1893 104.319 41.5768 105.121 42.3495C105.924 43.1234 106.324 44.2612 106.324 45.7639C106.324 47.2164 105.971 48.4162 105.264 49.3635C104.558 50.3107 103.462 50.7838 101.976 50.7838C100.737 50.7838 99.7532 50.3653 99.0243 49.5272C98.2965 48.6892 97.9315 47.5632 97.9315 46.1514C97.9315 44.6369 98.3158 43.4327 99.0832 42.5347C99.8517 41.6378 100.884 41.1893 102.178 41.1893ZM63.7653 41.2321C64.8249 41.2321 65.6854 41.4333 66.3469 41.8369C67.003 42.2404 67.3316 42.8687 67.3316 43.7207V48.9086C67.3316 49.0659 67.3637 49.1922 67.428 49.2875C67.4922 49.3827 67.6281 49.4309 67.8347 49.4309C67.9032 49.4309 67.9781 49.4266 68.0627 49.4181C68.1462 49.4095 68.2361 49.3967 68.3313 49.3795V50.4991C68.0958 50.5665 67.9171 50.6083 67.7929 50.6254C67.6698 50.6425 67.5018 50.6511 67.2899 50.6511C66.7676 50.6511 66.3887 50.4659 66.1532 50.0956C66.0301 49.8997 65.9434 49.6225 65.8931 49.2629C65.5848 49.6664 65.1417 50.0175 64.5648 50.3139C63.9868 50.6115 63.351 50.7603 62.6553 50.7603C61.8204 50.7603 61.1376 50.5066 60.6078 49.9993C60.0779 49.4919 59.8136 48.8572 59.8136 48.0941C59.8136 47.2592 60.0737 46.6116 60.5949 46.1514C61.1162 45.6922 61.8001 45.4096 62.6467 45.3026L65.0604 44.9997C65.4082 44.9548 65.6405 44.8092 65.7582 44.563C65.8257 44.4281 65.8599 44.2344 65.8599 43.9829C65.8599 43.467 65.6758 43.0924 65.3087 42.859C64.9416 42.6268 64.416 42.5112 63.7321 42.5112C62.9411 42.5112 62.3813 42.7242 62.0506 43.1502C61.8654 43.3856 61.7445 43.7356 61.6888 44.2012H60.2759C60.3038 43.0913 60.6645 42.3185 61.357 41.8839C62.0484 41.4494 62.8523 41.2321 63.7653 41.2321ZM90.4809 41.4505V47.4294L90.4873 47.652C90.5077 48.0116 90.5783 48.3124 90.6992 48.5554C90.969 49.0938 91.4699 49.3635 92.2052 49.3635C93.2584 49.3635 93.9766 48.8925 94.3577 47.9506C94.5653 47.4454 94.6681 46.754 94.6681 45.8742V41.4505H96.1826V50.4563H94.7526L94.7697 49.128L94.6467 49.326C94.4743 49.5829 94.272 49.8055 94.0376 49.9939C93.4607 50.4649 92.7596 50.7003 91.9355 50.7003C90.6511 50.7003 89.7777 50.2722 89.3132 49.4138C89.0595 48.9535 88.9343 48.3402 88.9343 47.5728V41.4505H90.4809ZM40.0755 38.1035L46.3155 48.1112V38.1035H47.9039V50.4563H46.0287L39.6966 40.4583V50.4563H38.0996V38.1035H40.0755ZM74.1925 41.2482C75.4705 41.2482 76.3342 41.6945 76.7827 42.5861C77.0289 43.0731 77.153 43.771 77.153 44.6797V50.4563H75.6139V44.7803L75.6085 44.5512C75.5893 44.106 75.509 43.7399 75.3699 43.452C75.1012 42.8911 74.6131 42.6107 73.9067 42.6107C73.5481 42.6107 73.2538 42.6471 73.0237 42.7199C72.6095 42.843 72.2445 43.0902 71.9309 43.4595C71.6783 43.757 71.5145 44.0642 71.4385 44.38C71.3636 44.6979 71.3251 45.1506 71.3251 45.7393V50.4563H69.8116V41.4505H71.2491V42.7284L71.4342 42.5112C71.8046 42.0959 72.1942 41.7898 72.603 41.5928C73.0804 41.3638 73.6092 41.2482 74.1925 41.2482ZM81.2653 38.1035V48.9846H87.5214V50.4563H79.5902V38.1035H81.2642H81.2653ZM112.504 41.2482C113.782 41.2482 114.646 41.6945 115.094 42.5861C115.341 43.0731 115.465 43.771 115.465 44.6797V50.4563H113.926V44.7803L113.92 44.5512C113.901 44.106 113.821 43.7399 113.682 43.452C113.413 42.8911 112.925 42.6107 112.218 42.6107C111.86 42.6107 111.565 42.6471 111.335 42.7199C110.921 42.843 110.556 43.0902 110.243 43.4595C109.99 43.757 109.825 44.0642 109.75 44.38C109.675 44.6979 109.637 45.1506 109.637 45.7393V50.4563H108.123V41.4505H109.561V42.7284L109.745 42.5112C110.116 42.0959 110.507 41.7898 110.915 41.5928C111.392 41.3638 111.921 41.2482 112.504 41.2482ZM102.136 42.5101C101.211 42.5101 100.538 42.8633 100.118 43.5697C99.6976 44.2762 99.4867 45.1281 99.4867 46.1257C99.4867 47.0847 99.6976 47.8832 100.118 48.5222C100.538 49.1612 101.206 49.4812 102.12 49.4812C103.123 49.4812 103.811 49.1012 104.183 48.3413C104.557 47.5814 104.743 46.7358 104.743 45.8057C104.743 44.9655 104.608 44.2815 104.34 43.7538C103.914 42.9243 103.178 42.5101 102.136 42.5101ZM65.8171 45.8731L65.6683 45.9587C65.5099 46.039 65.3215 46.1086 65.1021 46.1674C64.811 46.2466 64.5241 46.3023 64.2458 46.3355L63.3286 46.4532L63.1016 46.4875C62.6639 46.5603 62.3278 46.6641 62.0923 46.7979C61.6267 47.0623 61.3945 47.4829 61.3945 48.0598C61.3945 48.4965 61.5539 48.8411 61.874 49.0937C62.1929 49.3463 62.5718 49.4727 63.0085 49.4727C63.5416 49.4727 64.0575 49.3496 64.5562 49.1023C65.3964 48.6934 65.8171 48.0234 65.8171 47.0922V45.8731ZM54.1119 42.6278C53.0469 42.6278 52.318 43.1266 51.9252 44.1242C51.7186 44.6572 51.6148 45.3551 51.6148 46.2178C51.6148 47.2324 51.8203 48.0052 52.2324 48.535C52.6444 49.0648 53.1978 49.3292 53.8935 49.3292C54.981 49.3292 55.7452 48.839 56.1894 47.8575C56.4356 47.3031 56.5587 46.6555 56.5587 45.9159C56.5587 44.7995 56.3296 43.9732 55.8694 43.4349C55.4091 42.8965 54.8236 42.6278 54.1119 42.6278ZM121.158 42.6278C120.092 42.6278 119.363 43.1266 118.971 44.1242C118.764 44.6572 118.661 45.3551 118.661 46.2178C118.661 47.2324 118.866 48.0052 119.278 48.535C119.69 49.0648 120.244 49.3292 120.938 49.3292C122.026 49.3292 122.791 48.839 123.234 47.8575C123.48 47.3031 123.605 46.6555 123.605 45.9159C123.605 44.7995 123.375 43.9732 122.914 43.4349C122.455 42.8965 121.87 42.6278 121.157 42.6278H121.158Z" fill="black"/>
</svg>

<svg width="128" height="80" fill="none" xmlns="http://www.w3.org/2000/svg"><g opacity=".997" fill="#0C0E0F"><path d="m14.31 46.593-.193-.086c-3.21-2.462-5.041-4.838-5.084-9.044a10.987 10.987 0 0 1 .31-3.083 8.616 8.616 0 0 0-4.334 7.867 9.129 9.129 0 0 0 9.13 9.141 9.569 9.569 0 0 0 8.263-4.795H14.31zM23.975 32.871a9.776 9.776 0 0 0-8.38 5.052h3.328c1.959-.075 4.046 0 4.656 0h.193a10.286 10.286 0 0 1 5.352 9.151 8.115 8.115 0 0 1-.696 3.212 9.217 9.217 0 0 0 4.763-8.07 9.355 9.355 0 0 0-9.216-9.345z"/></g><g opacity=".997" fill="#E87700"><path d="M23.354 38.875v3.446c.054 1.724 0 3.511 0 4.282v.364a10.189 10.189 0 0 1-9.055 5.351 8.249 8.249 0 0 1-3.21-.685 9.13 9.13 0 0 0 17.124-4.42 9.536 9.536 0 0 0-4.859-8.338zM19.04 28a9.227 9.227 0 0 0-9.226 9.226 9.698 9.698 0 0 0 4.903 8.392V42.15c-.054-1.788 0-3.65 0-4.389v-.331a10.296 10.296 0 0 1 9.151-5.352 8.233 8.233 0 0 1 3.211.696A9.238 9.238 0 0 0 19.041 28z"/></g><path opacity=".997" d="M53.835 41.29c.706 0 1.323.174 1.85.522.285.196.577.482.874.857v-1.135h1.395v8.19l-.004.336c-.03.986-.197 1.777-.5 2.372-.628 1.222-1.813 1.834-3.556 1.834-.97 0-1.786-.218-2.447-.652-.662-.435-1.032-1.113-1.11-2.04h1.538l.043.195c.081.31.213.556.395.74.342.335.88.503 1.614.503 1.16 0 1.92-.409 2.28-1.227.211-.482.31-1.343.293-2.582-.303.46-.667.803-1.093 1.026-.426.225-.989.337-1.691.337-.974 0-1.828-.346-2.56-1.039-.731-.692-1.097-1.837-1.097-3.436 0-1.507.369-2.684 1.105-3.532.739-.845 1.627-1.27 2.67-1.27zm67.046 0c.706 0 1.322.174 1.849.522.286.196.578.482.875.857v-1.135H125v8.19l-.005.336c-.03.986-.197 1.777-.5 2.372-.627 1.222-1.813 1.834-3.557 1.834-.969 0-1.785-.218-2.446-.652-.662-.435-1.032-1.113-1.11-2.04h1.539l.043.195c.08.31.212.556.394.74.342.335.88.503 1.615.503 1.16 0 1.92-.409 2.278-1.227.213-.482.311-1.343.295-2.582-.303.46-.668.803-1.094 1.026-.426.225-.989.337-1.69.337-.975 0-1.829-.346-2.56-1.039-.733-.692-1.098-1.837-1.098-3.436 0-1.507.369-2.684 1.106-3.532.738-.845 1.627-1.27 2.67-1.27h.001zm-18.703-.1c1.161 0 2.141.387 2.943 1.16.803.773 1.203 1.911 1.203 3.414 0 1.452-.353 2.652-1.06 3.6-.706.947-1.802 1.42-3.288 1.42-1.239 0-2.223-.419-2.952-1.257-.728-.838-1.093-1.964-1.093-3.376 0-1.514.385-2.718 1.152-3.616.769-.897 1.801-1.346 3.095-1.346zm-38.413.042c1.06 0 1.92.201 2.582.605.656.403.985 1.032.985 1.884v5.188c0 .157.032.283.096.379.064.095.2.143.407.143.068 0 .143-.004.228-.013.083-.008.173-.021.268-.038v1.12c-.235.066-.414.108-.538.125a3.85 3.85 0 0 1-.503.026c-.522 0-.901-.185-1.137-.555-.123-.196-.21-.473-.26-.833-.308.403-.751.755-1.328 1.05a4.107 4.107 0 0 1-1.91.447c-.835 0-1.517-.253-2.047-.76-.53-.508-.794-1.143-.794-1.906 0-.835.26-1.482.78-1.943.522-.459 1.206-.741 2.053-.848L65.06 45c.348-.045.58-.19.698-.437.068-.135.102-.329.102-.58 0-.516-.184-.89-.551-1.124-.367-.232-.893-.348-1.577-.348-.79 0-1.35.213-1.681.64-.186.235-.306.585-.362 1.05h-1.413c.028-1.11.388-1.883 1.081-2.317.691-.435 1.495-.652 2.408-.652zm26.716.218v5.98l.006.222c.02.36.091.66.212.903.27.539.77.809 1.506.809 1.053 0 1.772-.471 2.153-1.413.207-.506.31-1.197.31-2.077V41.45h1.515v9.006h-1.43l.017-1.328-.123.198c-.173.257-.375.48-.61.668-.576.47-1.277.706-2.102.706-1.284 0-2.157-.428-2.622-1.286-.254-.46-.379-1.074-.379-1.841V41.45h1.547zm-50.405-3.347 6.24 10.008V38.103h1.588v12.353h-1.875l-6.332-9.998v9.998H38.1V38.103h1.975zm34.116 3.145c1.279 0 2.142.447 2.59 1.338.247.487.371 1.185.371 2.094v5.776h-1.54V44.78l-.004-.229c-.02-.445-.1-.811-.24-1.099-.268-.56-.756-.841-1.462-.841-.359 0-.653.036-.883.109-.415.123-.78.37-1.093.74a2.236 2.236 0 0 0-.492.92c-.075.318-.114.77-.114 1.36v4.716h-1.513V41.45h1.437v1.278l.185-.217c.37-.415.76-.721 1.169-.918a3.625 3.625 0 0 1 1.59-.345zm7.073-3.145v10.882h6.256v1.471h-7.93V38.103h1.674zm31.239 3.145c1.278 0 2.142.447 2.59 1.338.247.487.371 1.185.371 2.094v5.776h-1.539V44.78l-.006-.229c-.019-.445-.099-.811-.238-1.099-.269-.56-.757-.841-1.464-.841-.358 0-.653.036-.883.109-.414.123-.779.37-1.092.74a2.221 2.221 0 0 0-.493.92c-.075.318-.113.77-.113 1.36v4.716h-1.514V41.45h1.438v1.278l.184-.217c.371-.415.762-.721 1.17-.918a3.622 3.622 0 0 1 1.589-.345zm-10.368 1.262c-.925 0-1.598.353-2.018 1.06-.42.706-.631 1.558-.631 2.556 0 .959.21 1.757.631 2.396.42.64 1.088.96 2.002.96 1.003 0 1.691-.38 2.063-1.14.374-.76.56-1.606.56-2.536 0-.84-.135-1.524-.403-2.052-.426-.83-1.162-1.244-2.204-1.244zm-36.319 3.363-.149.086c-.158.08-.347.15-.566.208-.291.08-.578.135-.856.169l-.917.117-.227.034c-.438.073-.774.177-1.01.31-.465.265-.697.686-.697 1.263 0 .436.159.781.479 1.034.319.252.698.379 1.134.379.534 0 1.05-.123 1.548-.37.84-.41 1.261-1.08 1.261-2.01v-1.22zm-11.705-3.245c-1.065 0-1.794.499-2.187 1.496-.206.533-.31 1.231-.31 2.094 0 1.014.205 1.787.617 2.317.412.53.966.794 1.662.794 1.087 0 1.851-.49 2.295-1.471.247-.555.37-1.202.37-1.942 0-1.116-.23-1.943-.69-2.481a2.21 2.21 0 0 0-1.757-.807zm67.046 0c-1.066 0-1.795.499-2.187 1.496-.207.533-.31 1.231-.31 2.094 0 1.014.205 1.787.617 2.317.412.53.966.794 1.66.794 1.088 0 1.853-.49 2.296-1.471.246-.555.371-1.202.371-1.942 0-1.116-.23-1.943-.691-2.481-.459-.538-1.044-.807-1.757-.807h.001z" fill="#000"/></svg>
